!!!COM: Mozart, Wolfgang Amadeus
!!!OPR: Quartet in G Major
!!!OTL:
!!!OMV: 4
!!!SCT: K 387
!!!SCA: Chronologisch-thematisches Verzeichnis sämtlicher Tonwerke Wolfgang Amade Mozarts (L. von Köchel; 1862, 2/1905, 3/1937, 1947)
!!!YOR: Breitkopf & Härtel Edition
!!!EED: Frances Bennion
!!!ENC: Frances Bennion
!!!CDT: 1756/1/27/-1791/12/5/
!!!OCY: Österreich
!!!YEC: Copyright (c) 1994, 2000 Center for Computer Assisted Research in the Humanities
!!!YEM: Rights to all derivative editions reserved.
!!!YEM: Refer to licensing agreement for further details.
!!!YEN: United States of America
**kern	**kern	**kern	**kern
*k[f#]	*k[f#]	*k[f#]	*k[f#]
*G:	*G:	*G:	*G:
*clefG	*clefG	*clefF	*clefC
*M4/4	*M4/4	*M4/4	*M4/4
*tb8	*tb8	*tb8	*tb8
=1	=1	=1	=1
1r	1g	1r	1r
=2	=2	=2	=2
1r	1b	1r	1r
=3	=3	=3	=3
1r	1ee	1r	1r
=4	=4	=4	=4
1r	1cc#	1r	1r
=5	=5	=5	=5
1dd	2dd	1r	1r
.	4r	.	.
.	[4dd	.	.
=6	=6	=6	=6
1ee	4dd]	1r	1r
.	4cc	.	.
.	4r	.	.
.	[4b	.	.
=7	=7	=7	=7
1aa	4b]	1r	1r
.	4a	.	.
.	4r	.	.
.	[4ee	.	.
=8	=8	=8	=8
1ff#	4ee]	1r	1r
.	4dd	.	.
.	4r	.	.
.	[4cc	.	.
=9	=9	=9	=9
2gg	4cc]	1r	1G
.	4b	.	.
4r	[2dd	.	.
[4gg	.	.	.
=10	=10	=10	=10
4gg]	4dd]	1r	1B
4ff#	4d	.	.
4r	[2a	.	.
[4ff#	.	.	.
=11	=11	=11	=11
4ff#]	4a]	1r	1e
4ee	4g	.	.
4r	[2gg	.	.
[4bb	.	.	.
=12	=12	=12	=12
4bb]	4gg]	1r	1c#
4aa	4a	.	.
4r	[2ee	.	.
[4gg	.	.	.
=13	=13	=13	=13
4gg]	4ee]	1d	2d
4ff#	4dd	.	.
[2aa	4ff#	.	4r
.	4f#	.	[4d
=14	=14	=14	=14
4aa]	4r	1e	4d]
4a	4e	.	4c
[2dd	4f#	.	4r
.	4g#	.	[4B
=15	=15	=15	=15
4dd]	4r	1a	4B]
4cc	4e	.	4A
[2ccc	4a	.	4r
.	4g	.	[4e
=16	=16	=16	=16
4ccc]	4r	1f#	4e]
4dd	4a	.	4d
[2aa	4cc	.	4r
.	4d	.	[4c
=17	=17	=17	=17
4aa]	2d	2g	4c]
4gg	.	.	4B
8gg	2r	2r	2r
8ff#	.	.	.
8ee	.	.	.
8dd	.	.	.
=18	=18	=18	=18
8cc	2r	2r	2r
8b	.	.	.
8a	.	.	.
8g	.	.	.
8f#	4a 4f#	4d 4c	4D
8a	.	.	.
8dd	4r	4r	4r
8cc	.	.	.
=19	=19	=19	=19
8b	4b 4g	4d 4B	4G
8dd	.	.	.
8gg	2.r	2.r	2.r
8ff#	.	.	.
8gg	.	.	.
8ff#	.	.	.
8ee	.	.	.
8dd	.	.	.
=20	=20	=20	=20
8cc	2r	2r	2r
8b	.	.	.
8a	.	.	.
8g	.	.	.
8f#	4a 4f#	4d 4c	4D
8a	.	.	.
8dd	4r	4r	4r
8cc	.	.	.
=21	=21	=21	=21
8b	4b 4g	4d 4B	4G
8dd	.	.	.
8gg	4r	4r	4r
8ff#	.	.	.
8gg	4g	4B	4E
8ff#	.	.	.
8ee	4r	4r	4r
8dd	.	.	.
=22	=22	=22	=22
8ee	4g	4A	4C
8dd	.	.	.
8cc	4r	4r	4r
8b	.	.	.
4a	4f#	4c	4D
4dd	4r	4r	4r
=23	=23	=23	=23
4g	4g	4B	4GG
2.r	4r	2.r	2.r
.	8gg	.	.
.	8ff#	.	.
.	8ee	.	.
.	8dd	.	.
=24	=24	=24	=24
2r	8cc	2r	2r
.	8b	.	.
.	8a	.	.
.	8g	.	.
4a 4f#	8f#	4d 4c	4D
.	8a	.	.
4r	8dd	4r	4r
.	8cc	.	.
=25	=25	=25	=25
4b 4g	8b	4d 4B	4G
.	8dd	.	.
2.r	8gg	2.r	2.r
.	8ff#	.	.
.	8gg	.	.
.	8ff#	.	.
.	8ee	.	.
.	8dd	.	.
=26	=26	=26	=26
2r	8cc	2r	2r
.	8b	.	.
.	8a	.	.
.	8g	.	.
4a 4f#	8f#	4d 4c	4D
.	8a	.	.
4r	8dd	4r	4r
.	8cc	.	.
=27	=27	=27	=27
4b 4g	8b	4d 4B	4G
.	8dd	.	.
4r	8gg	4r	4r
.	8ff#	.	.
4g	8gg	4B	4E
.	8ff#	.	.
4r	8ee	4r	4r
.	8dd	.	.
=28	=28	=28	=28
4g	8ee	4A	4C
.	8dd	.	.
4r	8cc	4r	4r
.	8b	.	.
4f#	4a	4c	4D
4r	4dd	4r	4r
=29	=29	=29	=29
4g	4g	4B	4G
2.r	4r	4r	4r
.	4g 4B	8g	4E
.	.	8f#	.
.	4r	8e	4r
.	.	8d	.
=30	=30	=30	=30
1r	4g 4A	8e	4C
.	.	8d	.
.	4r	8c	4r
.	.	8B	.
.	4f# 4c	4A	4D
.	4r	4d	4r
=31	=31	=31	=31
2.g	4g 4B	4G	4GG
.	2.r	2.r	4r
.	.	.	8G
.	.	.	8F#
[4g	.	.	8E
.	.	.	8D
=32	=32	=32	=32
4g]	2r	4B	8E
.	.	.	8D
2g	.	8A	8C
.	.	8B	8BB
.	[2a	4c	4AA
4f#	.	8d	4D
.	.	8c	.
=33	=33	=33	=33
2.b	4a]	4B	2GG
.	4a	4d	.
.	4d	2g	8B
.	.	.	8A
[4b	4g	.	8G
.	.	.	8F#
=34	=34	=34	=34
4b]	2r	4d	8G
.	.	.	8F#
2b	.	8c#	8E
.	.	8d	8D
.	[2cc#	4e	4C#
4a#	.	8f#	4F#
.	.	8e	.
=35	=35	=35	=35
2.dd	4cc#]	4d	2BB
.	4cc#	4f#	.
.	4f#	2b	8d
.	.	.	8c#
[4dd	4b	.	8B
.	.	.	8A
=36	=36	=36	=36
4dd]	2r	4f#	8B
.	.	.	8A
2dd	.	8e	8G
.	.	8f#	8F#
.	[2ee	4g	4E
4cc#	.	8a	4A
.	.	8g	.
=37	=37	=37	=37
[1ff#	4ee]	4f#	8D
.	.	.	8E
.	4ee	4a	8F#
.	.	.	8G
.	4dd	[2dd	8A
.	.	.	8B
.	4cc#	.	8c#
.	.	.	8d
=38	=38	=38	=38
4ff#]	2b	2dd]	2G
2ee	.	.	.
.	2e	2b	2G#
4dd	.	.	.
=39	=39	=39	=39
4cc#	4e	8a	2A
.	.	8a	.
2r	2r	8a	.
.	.	8a	.
.	.	8a	2r
.	.	8a	.
4aa	4ff#	8a	.
.	.	8a	.
=40	=40	=40	=40
4gg#	4ee#	8a	1r
.	.	8a	.
4gg#	4ee#	8a	.
.	.	8a	.
4gg	4ee	8a	.
.	.	8a	.
4gg	4ee	8a	.
.	.	8a	.
=41	=41	=41	=41
4ff#	4dd#	8a	1r
.	.	8a	.
4ff#	4dd#	8a	.
.	.	8a	.
4ff	4dd	8a	.
.	.	8a	.
4ff	4dd	8a	.
.	.	8a	.
=42	=42	=42	=42
4ee	4cc#	8a	4r
.	.	8a	.
4ff 4a	4dd	8a	4d
.	.	8a	.
4ee 4a	4cc#	8a	4A
.	.	8a	.
4ff 4a	4dd	8a	4d
.	.	8a	.
=43	=43	=43	=43
4ee 4a	4cc#	8a	2A
.	.	8a	.
2r	2r	8a	.
.	.	8a	.
.	.	8a	2r
.	.	8a	.
4aa	4ff#	8a	.
.	.	8a	.
=44	=44	=44	=44
4gg#	4ee#	8a	1r
.	.	8a	.
4gg#	4ee#	8a	.
.	.	8a	.
4gg	4ee	8a	.
.	.	8a	.
4gg	4ee	8a	.
.	.	8a	.
=45	=45	=45	=45
4ff#	4dd#	8a	1r
.	.	8a	.
4ff#	4dd#	8a	.
.	.	8a	.
4ff	4dd	8a	.
.	.	8a	.
4ff	4dd	8a	.
.	.	8a	.
=46	=46	=46	=46
4ee	4cc#	8a	4r
.	.	8a	.
4ff 4a	4dd	8a	4D
.	.	8a	.
4ee 4a	4cc#	8a	4AA
.	.	8a	.
4ff 4a	4dd	8a	4D
.	.	8a	.
=47	=47	=47	=47
4ee 4a	4cc#	8a	4AA
.	.	8a	.
4gg#	2.r	8b-	2.r
.	.	8b-	.
4aa	.	8a	.
.	.	8a	.
4gg#	.	8b-	.
.	.	8b-	.
=48	=48	=48	=48
4aa	4r	8a	4r
.	.	8a	.
4ff	4dd	8g#	4d
.	.	8g#	.
4ee	4cc#	8a	4A
.	.	8a	.
4ff	4dd	8g#	4d
.	.	8g#	.
=49	=49	=49	=49
4ee	4cc#	8a	4A
.	.	8a	.
4gg#	2.r	8b-	2.r
.	.	8b-	.
4aa	.	8a	.
.	.	8a	.
4gg#	.	8b-	.
.	.	8b-	.
=50	=50	=50	=50
4aa	4r	8a	4r
.	.	8a	.
4ff	4dd	8g#	4D
.	.	8g#	.
4ee	4cc#	8a	4AA
.	.	8a	.
4ff	4dd	8g#	4D
.	.	8g#	.
=51	=51	=51	=51
2ee	2cc#	2a	2AA
2r	2r	2r	[2A
=52	=52	=52	=52
1r	1r	1r	4A]
.	.	.	4D
.	.	.	[2G
=53	=53	=53	=53
1r	1r	1r	4G]
.	.	.	4A
.	.	.	[2B
=54	=54	=54	=54
1r	1r	1r	4B]
.	.	.	4E
.	.	.	4A
.	.	.	4G
=55	=55	=55	=55
1r	1r	2r	4F#
.	.	.	4G
.	.	[2d	4F#
.	.	.	4E
=56	=56	=56	=56
1r	1r	4d]	4D
.	.	4A	4E
.	.	[2d	4D
.	.	.	4C#
=57	=57	=57	=57
1r	1r	4d]	4BB
.	.	4e	4C#
.	.	[2f#	4BB
.	.	.	4AA
=58	=58	=58	=58
1r	1r	4f#]	1GG#
.	.	4B	.
.	.	4e	.
.	.	4d	.
=59	=59	=59	=59
1r	2r	4c#	4AA
.	.	4d	4E
.	[2a	4B	4A
.	.	4c#	4G
=60	=60	=60	=60
1r	4a]	4d	4F#
.	4d	4B	4G
.	[2g	4c#	4E
.	.	4d	4F#
=61	=61	=61	=61
1r	4g]	4e	4G
.	4a	4d	4F#
.	[2b	4g	4E
.	.	4f#	4D
=62	=62	=62	=62
1r	4b]	4e	4C#
.	4e	4d	4BB
.	4a	4c#	4AA
.	4g	4e	4C#
=63	=63	=63	=63
2r	4f#	4d	2D
.	4g	4e	.
[2dd	4a	4f#	2r
.	4g	4e	.
=64	=64	=64	=64
4dd]	4f#	4d	1r
4a	4g	4e	.
[2dd	4f#	4d	.
.	4e	4c#	.
=65	=65	=65	=65
4dd]	4d	4B	1r
4ee	4c#	4A	.
[2ff#	4B	4G#	.
.	4A	4F#	.
=66	=66	=66	=66
4ff#]	2G#	[1E	1r
4b	.	.	.
4ee	[2G	.	.
4dd	.	.	.
=67	=67	=67	=67
2cc#	4G]	4E]	1r
.	8g	8e	.
.	8f#	8d	.
[2bb	4g	4e	.
.	4f#	4d	.
=68	=68	=68	=68
4bb]	1e	1c#	1r
4ee	.	.	.
4aa	.	.	.
4gg	.	.	.
=69	=69	=69	=69
2ff#	2d	2d	1D
2r	[2dd	2f#	.
=70	=70	=70	=70
1r	4dd]	2.a	1F#
.	4a	.	.
.	[2dd	.	.
.	.	4g	.
=71	=71	=71	=71
1r	4dd]	4f#	1B
.	4ee	4e	.
.	[2ff#	4d	.
.	.	4c#	.
=72	=72	=72	=72
1r	4ff#]	2B	1G#
.	4b	.	.
.	4ee	2b	.
.	4dd	.	.
=73	=73	=73	=73
1a	2cc#	2e	[1A
.	2c#	[2a	.
=74	=74	=74	=74
1b	4d	4a]	1A_
.	2dd	4d	.
.	.	[2g	.
.	4cc#	.	.
=75	=75	=75	=75
1ee	4b	4g]	1A_
.	4a	4a	.
.	4g	[2b	.
.	4f#	.	.
=76	=76	=76	=76
1cc#	4e	4b]	1A]
.	4g	4e	.
.	4f#	4a	.
.	4e	4g	.
=77	=77	=77	=77
2dd	2d	2f#	4D
.	.	.	4AA
2f#	2r	2d	[2D
=78	=78	=78	=78
2.a	1r	1f#	4D]
.	.	.	4AA
.	.	.	[2D
4g	.	.	.
=79	=79	=79	=79
4f#	1r	1b	4D]
4e	.	.	4E
4d	.	.	[2F#
4c#	.	.	.
=80	=80	=80	=80
2B	1r	1g#	4F#]
.	.	.	4BB
2b	.	.	4E
.	.	.	4D#
=81	=81	=81	=81
2e	1a	2a	1C#
[2aa	.	2e	.
=82	=82	=82	=82
4aa]	1b	4d	1BB
4dd	.	4f#	.
[2gg	.	4e	.
.	.	4d	.
=83	=83	=83	=83
4gg]	1ee	2.c#	[1AA
4aa	.	.	.
[2bb	.	.	.
.	.	4d	.
=84	=84	=84	=84
4bb]	[1cc#	4e	2AA]
4ee	.	4g	.
4aa	.	4f#	2A
4gg	.	[4e	.
=85	=85	=85	=85
[1ff#	4cc#]	2e]	4A#
.	4a#	.	4c
.	4b	4d	4B
.	4cc	4d#	4A
=86	=86	=86	=86
4ff#]	1b	[1e	[1G
4b	.	.	.
4ee	.	.	.
4dd	.	.	.
=87	=87	=87	=87
2.cc#	2b-	2e]	2G]
.	2a	2A	2F#
4dd	.	.	.
=88	=88	=88	=88
[1g	2c#	1B-	2E
.	2d	.	2D
=89	=89	=89	=89
2g]	2e	1A	2C#
2f#	[2d	.	2D
=90	=90	=90	=90
1e	2d]	2B	2GG
.	2c#	4A	2AA
.	.	4G	.
=91	=91	=91	=91
4d	4d	4F#	4DD
2.r	4A	4F#	2.r
.	4A	4F#	.
.	4A	4F#	.
=92	=92	=92	=92
2aa	4A	4F#	4D
.	4A	4F#	2.r
4.ff#	4A	4F#	.
.	4A	4F#	.
8ddd	.	.	.
=93	=93	=93	=93
2ddd	4A	4F#	4D
.	4A	4F#	2.r
[2aa	4A	4F#	.
.	4A	4F#	.
=94	=94	=94	=94
2aa]	4c#	4E	4AA
.	4c#	4E	2.r
4gg	4c#	4E	.
4ee	4c#	4G	.
=95	=95	=95	=95
4.ee	4c#	4G	4DD
.	4d	4F#	2.r
8ff#	.	.	.
2dd	4f#	4A	.
.	4f#	4A	.
=96	=96	=96	=96
2aa	4A	4F#	4D
.	4A	4F#	2.r
4.ff#	4A	4F#	.
.	4A	4F#	.
8ddd	.	.	.
=97	=97	=97	=97
2ddd	4A	4F#	4D
.	4A	4F#	2.r
[2aa	4A	4F#	.
.	4A	4F#	.
=98	=98	=98	=98
2aa]	4c#	4E	4AA
.	4c#	4E	2.r
4gg	4c#	4E	.
4ee	4c#	4G	.
=99	=99	=99	=99
8dd	4d	4F#	4DD
8a	.	.	.
8b	2.r	2.r	2.r
8cc#	.	.	.
8dd	.	.	.
8ee	.	.	.
8ff#	.	.	.
8gg	.	.	.
=100	=100	=100	=100
4aa	8f#	4D	[1D
.	8a	.	.
4aa	8d	4F#	.
.	8a	.	.
4ff#	8f#	4A	.
.	8a	.	.
4ddd	8d	4F#	.
.	8a	.	.
=101	=101	=101	=101
4ddd	8f#	4D	1D]
.	8a	.	.
4ddd	8d	4F#	.
.	8a	.	.
[2aa	8f#	4A	.
.	8a	.	.
.	8d	4F#	.
.	8a	.	.
=102	=102	=102	=102
4aa]	8g	4C#	1AA
.	8a	.	.
4aa	8e	4E	.
.	8a	.	.
4gg	8g	4A	.
.	8a	.	.
4ee	8e	4C#	.
.	8a	.	.
=103	=103	=103	=103
4ee	8f#	4D	1DD
.	8a	.	.
4ff#	8d	4F#	.
.	8a	.	.
2dd	8f#	4A	.
.	8a	.	.
.	8d	4F#	.
.	8a	.	.
=104	=104	=104	=104
8gg#	8f#	4D	[1D
8aa	8a	.	.
8gg#	8d	4F#	.
8aa	8a	.	.
4ff#	8f#	4A	.
.	8a	.	.
4ddd	8d	4F#	.
.	8a	.	.
=105	=105	=105	=105
8ccc#	8f#	4D	1D]
8ddd	8a	.	.
8ccc#	8d	4F#	.
8ddd	8a	.	.
4aa	8f#	4A	.
.	8a	.	.
4r	8d	4F#	.
.	8a	.	.
=106	=106	=106	=106
8gg#	8e	4C#	1AA
8aa	8a	.	.
8gg#	8c#	4E	.
8aa	8a	.	.
4gg	8e	4A	.
.	8a	.	.
4ee	8c#	4G	.
.	8a	.	.
=107	=107	=107	=107
4dd	8d	8F#	4D
.	8f#	8d	.
2.r	8g	8e	8E
.	8a	8f#	8F#
.	8b	8g	8G
.	8cc#	8a	8A
.	8dd	8b	8B
.	8ee	8cc#	8c#
=108	=108	=108	=108
4ff#	4ff#	4dd	4d
4ff#	4ff#	4dd	4d
4aa	4ee	4a	4c#
4aa	4ee	4a	4c#
=109	=109	=109	=109
2.ddd	2.dd	2.f#	2.B
4dd	4dd	4a	4F#
=110	=110	=110	=110
4ee	4dd	4a	4A
4ee	4dd	4a	4A
4aa	4cc#	4a	4A
4aa	4cc#	4a	4A
=111	=111	=111	=111
2ff#	8dd	8a	4D
.	8f#	8d	.
.	8g	8e	8E
.	8a	8f#	8F#
2r	8b	8g	8G
.	8cc#	8a	8A
.	8dd	8b	8B
.	8ee	8cc#	8c#
=112	=112	=112	=112
4ff#	4ff#	4dd	4d
4ff#	4ff#	4dd	4d
4aa	4ee	4a	4c#
4aa	4ee	4a	4c#
=113	=113	=113	=113
2.ddd	2.dd	2.f#	2.B
4dd	4dd	4a	4F#
=114	=114	=114	=114
4ee	4dd	4a	4A
4ee	4dd	4a	4A
4aa	4cc#	4g	4A
4aa	4cc#	4g	4A
=115	=115	=115	=115
2dd	[1dd	2f#	2B
4r	.	2a	2F#
4dd	.	.	.
=116	=116	=116	=116
4ee	2dd]	2b	2G
4ee	.	.	.
4aa	2cc#	4a	2A
4aa	.	4g	.
=117	=117	=117	=117
4dd	4dd	4f#	4B
2r	4r	4r	4r
.	4d	4A	4FF#
4d	4r	4r	4r
=118	=118	=118	=118
4e	4d	4B	4GG
4e	4r	4r	4r
4a	4c#	4G	4AA
4a	4r	4r	4r
=119	=119	=119	=119
4d	4d	4F#	4DD
2r	2.r	2.r	2.r
4d	.	.	.
=120	=120	=120	=120
4f#	1r	1r	1r
4f#	.	.	.
4a	.	.	.
4a	.	.	.
=121	=121	=121	=121
4cc	[1cc	[1a 1f#	[1d
2r	.	.	.
4dd	.	.	.
=122	=122	=122	=122
4ff#	1cc_	1a 1f#_	1d_
2r	.	.	.
4aa	.	.	.
=123	=123	=123	=123
4ccc	4cc]	4a 4f#]	4d]
2.r	2r	2.r	2.r
.	4d	.	.
=124	=124	=124	=124
1r	4e-	1r	1r
.	4e	.	.
.	4f	.	.
.	4f#	.	.
=125	=125	=125	=125
1r	[1g	2.r	1r
.	.	4b	.
=126	=126	=126	=126
1r	1g_	4cc	1r
.	.	4cc#	.
.	.	4dd	.
.	.	4dd#	.
=127	=127	=127	=127
2.r	1g_	[1ee	1r
4ff#	.	.	.
=128	=128	=128	=128
4gg	1g]	1ee_	1r
4gg#	.	.	.
4aa	.	.	.
4aa#	.	.	.
=129	=129	=129	=129
[1bb	[1f#	1ee]	2.r
.	.	.	4C#
=130	=130	=130	=130
1bb_	2f#]	2dd	4D
.	.	.	4D#
.	2dd	2r	4E
.	.	.	4E#
=131	=131	=131	=131
1bb]	1cc#	2.r	2F#
.	.	.	2r
.	.	4G#	.
=132	=132	=132	=132
1aa	[1ff#	4A	1r
.	.	4A#	.
.	.	4B	.
.	.	4B#	.
=133	=133	=133	=133
1gg#	1ff#]	2c#	2.r
.	.	2r	.
.	.	.	4E-
=134	=134	=134	=134
[1ccc#	1ee	1r	4E
.	.	.	4F
.	.	.	4G-
.	.	.	4G
=135	=135	=135	=135
1ccc#]	1dd#	2.r	2A-
.	.	.	2r
.	.	4B-	.
=136	=136	=136	=136
1bb	[1gg#	4c-	1r
.	.	4c	.
.	.	4d-	.
.	.	4d	.
=137	=137	=137	=137
1bb-	1gg#]	2e-	2.r
.	.	2r	.
.	.	.	4F
=138	=138	=138	=138
[1eee-	1ff#	1r	4G-
.	.	.	4G
.	.	.	4A-
.	.	.	4A
=139	=139	=139	=139
1eee-]	1ff	2.r	2B-
.	.	.	2r
.	.	4c	.
=140	=140	=140	=140
1ddd-	1bb-	4d-	1r
.	.	4d	.
.	.	4e-	.
.	.	4e	.
=141	=141	=141	=141
4ccc	4aa	4f	4F
4ddd-	4bb-	4e	4F
4ccc	4aa	4f	4F
4ddd-	4bb-	4e	4F
=142	=142	=142	=142
4ccc	4aa	4f	4F
2.r	2.r	2.r	2.r
=143	=143	=143	=143
1B-	1r	1r	1r
=144	=144	=144	=144
1d-	1r	1r	1r
=145	=145	=145	=145
1g-	4r	4r	1r
.	4dd-	4b-	.
.	4dd-	4b-	.
.	4dd-	4b-	.
=146	=146	=146	=146
1e	4dd-	4b-	1r
.	4dd-	4b-	.
.	4dd-	4b-	.
.	4dd-	4b-	.
=147	=147	=147	=147
2f	4dd-	4b-	1FF
.	4cc	4a-	.
2r	2cc	2a-	.
=148	=148	=148	=148
1r	1r	1r	1AA-
=149	=149	=149	=149
1r	4r	4r	1D-
.	4ff	4a-	.
.	4ff	4a-	.
.	4ff	4a-	.
=150	=150	=150	=150
1r	4ff	4a-	1BB
.	4ff	4a-	.
.	4ff	4a-	.
.	4ff	4a-	.
=151	=151	=151	=151
1cc	4ff	4a-	2C
.	4ee-	4g	.
.	2ee-	2g	2r
=152	=152	=152	=152
1ee-	1r	1r	1r
=153	=153	=153	=153
1aa-	4r	4r	1r
.	4e-	4c	.
.	4e-	4c	.
.	4e-	4c	.
=154	=154	=154	=154
1ff#	4e-	4c	1r
.	4e-	4c	.
.	4e-	4c	.
.	4e-	4c	.
=155	=155	=155	=155
2gg	4e-	4c	1GG
.	4d	4B-	.
2r	2d	2B-	.
=156	=156	=156	=156
1r	1r	1r	1BB-
=157	=157	=157	=157
1r	4r	4r	1E-
.	4b-	4g	.
.	4b-	4g	.
.	4b-	4g	.
=158	=158	=158	=158
1r	4b-	4g	1C#
.	4b-	4g	.
.	4b-	4g	.
.	4b-	4g	.
=159	=159	=159	=159
4r	4b-	4g	[1D
4cc	4a	4f#	.
4cc	[2a	[2f#	.
4cc	.	.	.
=160	=160	=160	=160
4cc	1a]	1f#]	1D]
4cc	.	.	.
4cc	.	.	.
4cc	.	.	.
=161	=161	=161	=161
4cc	4r	4r	[1GG
4b	4a-	4f	.
[2b	4a-	4f	.
.	4a-	4f	.
=162	=162	=162	=162
1b]	4a-	4f	1GG]
.	4a-	4f	.
.	4a-	4f	.
.	4a-	4f	.
=163	=163	=163	=163
4r	4a-	4f	[1C
4b-	4g	4e	.
4bb-	[2g	[2e	.
4bb-	.	.	.
=164	=164	=164	=164
4bb-	1g]	1e]	1C]
4bb-	.	.	.
4bb-	.	.	.
4bb-	.	.	.
=165	=165	=165	=165
4bb-	4r	4r	[1FF
4aa	4d#	4c	.
[2aa	4dd#	4cc	.
.	4dd#	4cc	.
=166	=166	=166	=166
2.aa]	4dd#	4cc	1FF]
.	4dd#	4cc	.
.	4dd#	4cc	.
4aa	4dd#	4cc	.
=167	=167	=167	=167
4aa	4dd#	4cc	4r
4gg#	4dd	4b	4E
[2gg#	4dd	4b	4e
.	4dd	4b	4e
=168	=168	=168	=168
4gg#]	4dd	4b	4e
4gg	4cc#	4a#	4e
[2gg	4cc#	4a#	4e
.	4cc#	4a#	4e
=169	=169	=169	=169
4gg]	4cc#	4a#	4e
4ff#	4cc	4a	4d#
4ff#	4cc	4a	4d#
4ff#	4cc	4a	4d#
=170	=170	=170	=170
4ff#	4cc	4a	4d#
4ff	4b	4a-	4d
4ff	4b	4a-	4d
4ff	4b	4a-	4d
=171	=171	=171	=171
[1ff	2b	1a-	2d
.	2cc	.	2c
=172	=172	=172	=172
1ff_	2dd	2g	2B
.	2cc	2c	2A
=173	=173	=173	=173
4ff]	4b	4d	4G
2.r	2.r	2.r	2.r
=174	=174	=174	=174
1r	1r	1r	1r
=175	=175	=175	=175
2r	4cc 4e	4g	4c
.	2.r	2.r	2.r
8ccc	.	.	.
8bb	.	.	.
8aa	.	.	.
8gg	.	.	.
=176	=176	=176	=176
8ff	2r	2r	2r
8ee	.	.	.
8dd	.	.	.
8cc	.	.	.
8b	4dd 4f	4b 4g	4G
8dd	.	.	.
8gg	4r	4r	4r
8ff	.	.	.
=177	=177	=177	=177
8ee	4cc 4e	4cc 4g	4c
8gg	.	.	.
8ccc	2.r	2.r	2.r
8bb	.	.	.
8ccc	.	.	.
8bb	.	.	.
8aa	.	.	.
8gg	.	.	.
=178	=178	=178	=178
8ff	2r	2r	2r
8ee	.	.	.
8dd	.	.	.
8cc	.	.	.
8b	4dd 4f	4b 4g	4G
8dd	.	.	.
8gg	4r	4r	4r
8ff	.	.	.
=179	=179	=179	=179
8ee	4cc 4e	4cc 4g	4c
8gg	.	.	.
8ccc	4r	4r	4r
8bb	.	.	.
8ccc	4cc 4e	4a	4A
8bb	.	.	.
8aa	4r	4r	4r
8gg	.	.	.
=180	=180	=180	=180
8aa	4cc 4d	4a	4F
8gg	.	.	.
8ff	4r	4r	4r
8ee	.	.	.
4dd	4b 4f	4g	4G
4gg	4r	4r	4r
=181	=181	=181	=181
4cc	4cc 4e	4g	4C
2.r	4r	2.r	2.r
.	8cc	.	.
.	8b	.	.
.	8a	.	.
.	8g	.	.
=182	=182	=182	=182
2r	8f	2r	2r
.	8e	.	.
.	8d	.	.
.	8c	.	.
4f 4G	8B	4d 4B	4GG
.	8d	.	.
4r	8g	4r	4r
.	8f	.	.
=183	=183	=183	=183
4e 4G	8e	4c	4C
.	8g	.	.
2.r	8cc	2.r	2.r
.	8b	.	.
.	8cc	.	.
.	8b	.	.
.	8a	.	.
.	8g	.	.
=184	=184	=184	=184
2r	8f	2r	2r
.	8e	.	.
.	8d	.	.
.	8c	.	.
4f 4G	8B	4d 4B	4GG
.	8d	.	.
4r	8g	4r	4r
.	8f	.	.
=185	=185	=185	=185
4e 4G	8e	4c	4C
.	8g	.	.
4r	8cc	4r	4r
.	8b	.	.
4e	8cc	4c	4A
.	8b	.	.
4r	8a	4r	4r
.	8g	.	.
=186	=186	=186	=186
4d	8a	4c	4F
.	8g	.	.
4r	8f	4r	4r
.	8e	.	.
4f	4d	4B	4G
4r	4g	4r	4r
=187	=187	=187	=187
4e	4c	4c	4C
4r	4r	4r	4r
4e	4c	8c	4AA
.	.	8B	.
4r	4r	8A	4r
.	.	8G	.
=188	=188	=188	=188
4d	4c	8A	4FF
.	.	8G	.
4r	4r	8F	4r
.	.	8E	.
4d	4B	4D	4GG
4r	4r	4G	4r
=189	=189	=189	=189
2.c	4c	4C	4CC
.	2.r	2.r	4r
.	.	.	8C
.	.	.	8BB
[4c	.	.	8AA
.	.	.	8GG
=190	=190	=190	=190
4c]	2r	4E	8AA
.	.	.	8GG
2c	.	8D	8FF
.	.	8E	8EE
.	[2d	4F	4DD
4B	.	8G	4GG
.	.	8F	.
=191	=191	=191	=191
2.e	4d]	4E	2CC
.	4d	4G	.
.	4G	2c	8E
.	.	.	8D
[4e	4c	.	8C
.	.	.	8BB
=192	=192	=192	=192
4e]	2r	4G	8C
.	.	.	8BB
2e	.	8F#	8AA
.	.	8G	8GG
.	[2f#	4A	4FF#
4d#	.	8B	4BB
.	.	8A	.
=193	=193	=193	=193
2.g	4f#]	4G	2EE
.	4f#	4B	.
.	4B	2e	8G
.	.	.	8F#
[4g	4e	.	8E
.	.	.	8D
=194	=194	=194	=194
4g]	2r	4B	8E
.	.	.	8D
2g	.	8A	8C
.	.	8B	8BB
.	[2a	4c	4AA
4f#	.	8d	4D
.	.	8c	.
=195	=195	=195	=195
[1b	4a]	4B	8GG
.	.	.	8AA
.	4a	4d	8BB
.	.	.	8C
.	4g	[2g	8D
.	.	.	8E
.	4f#	.	8F#
.	.	.	8G
=196	=196	=196	=196
4b]	2e	2g]	2C
2a	.	.	.
.	[2A	2e	2C#
4g	.	.	.
=197	=197	=197	=197
4f#	4A]	8d	2D
.	.	8d	.
2r	2r	8d	.
.	.	8d	.
.	.	8d	2r
.	.	8d	.
4dd	4b	8d	.
.	.	8d	.
=198	=198	=198	=198
4cc#	4a#	8d	1r
.	.	8d	.
4cc#	4a#	8d	.
.	.	8d	.
4cc	4a	8d	.
.	.	8d	.
4cc	4a	8d	.
.	.	8d	.
=199	=199	=199	=199
4b	4g#	8d	1r
.	.	8d	.
4b	4g#	8d	.
.	.	8d	.
4b-	4g	8d	.
.	.	8d	.
4b-	4g	8d	.
.	.	8d	.
=200	=200	=200	=200
4a	4f#	8d	4r
.	.	8d	.
4b- 4d	4g	8d	4G
.	.	8d	.
4a 4d	4f#	8d	4D
.	.	8d	.
4b- 4d	4g	8d	4G
.	.	8d	.
=201	=201	=201	=201
4a 4d	4f#	8d	2D
.	.	8dd	.
2r	2r	8dd	.
.	.	8dd	.
.	.	8dd	2r
.	.	8dd	.
4ddd	4bb	8dd	.
.	.	8dd	.
=202	=202	=202	=202
4ccc#	4aa#	8dd	1r
.	.	8dd	.
4ccc#	4aa#	8dd	.
.	.	8dd	.
4ccc	4aa	8dd	.
.	.	8dd	.
4ccc	4aa	8dd	.
.	.	8dd	.
=203	=203	=203	=203
4bb	4gg#	8dd	1r
.	.	8dd	.
4bb	4gg#	8dd	.
.	.	8dd	.
4bb-	4gg	8dd	.
.	.	8dd	.
4bb-	4gg	8dd	.
.	.	8dd	.
=204	=204	=204	=204
4aa	4ff#	8dd	4r
.	.	8dd	.
4bb- 4dd	4gg	8dd	4G
.	.	8dd	.
4aa 4dd	4ff#	8dd	4D
.	.	8dd	.
4bb- 4dd	4gg	8dd	4G
.	.	8dd	.
=205	=205	=205	=205
4aa 4dd	4ff#	4dd	1r
4cc#	2.r	8e-	.
.	.	8e-	.
4dd	.	8d	.
.	.	8d	.
4cc#	.	8e-	.
.	.	8e-	.
=206	=206	=206	=206
4dd	4r	8d	4r
.	.	8d	.
4b-	4g	8c#	4GG
.	.	8c#	.
4a	4f#	8d	4DD
.	.	8d	.
4b-	4g	8c#	4GG
.	.	8c#	.
=207	=207	=207	=207
4a	4f#	4d	4DD
4ccc#	8ee-	2.r	2.r
.	8ee-	.	.
4ddd	8dd	.	.
.	8dd	.	.
4ccc#	8ee-	.	.
.	8ee-	.	.
=208	=208	=208	=208
4ddd	8dd	4r	4r
.	8dd	.	.
4bb-	8gg	8cc#	4G
.	8gg	8cc#	.
4aa	8ff#	8dd	4D
.	8ff#	8dd	.
4bb-	8gg	8cc#	4G
.	8gg	8cc#	.
=209	=209	=209	=209
2aa	2ff#	2dd	1D
2r	[2dd	2r	.
=210	=210	=210	=210
1r	4dd]	1r	1E
.	4g	.	.
.	[2cc	.	.
=211	=211	=211	=211
1r	4cc]	1r	1A
.	4dd	.	.
.	[2ee	.	.
=212	=212	=212	=212
1r	4ee]	1r	1F#
.	4a	.	.
.	4dd	.	.
.	4cc	.	.
=213	=213	=213	=213
2r	4b	1G	4G
.	4cc	.	4A
[2gg	4dd	.	4B
.	4cc	.	4A
=214	=214	=214	=214
4gg]	4b	1B	4G
4dd	4cc	.	4A
[2gg	4b	.	4G
.	4a	.	4F#
=215	=215	=215	=215
4gg]	2g	1e	4E
4aa	.	.	4D
[2bb	[2gg	.	4C#
.	.	.	4BB
=216	=216	=216	=216
4bb]	2gg]	1c#	1AA
4ee	.	.	.
4aa	4ff#	.	.
4gg	4ee	.	.
=217	=217	=217	=217
2ff#	1dd	2d	[1D
2f#	.	[2dd	.
=218	=218	=218	=218
4g	1ee	4dd]	1D_
2gg	.	4g	.
.	.	[2cc	.
4ff#	.	.	.
=219	=219	=219	=219
4ee	1aa	4cc]	1D_
4dd	.	4dd	.
4cc	.	[2ee	.
4b	.	.	.
=220	=220	=220	=220
4a	1ff#	4ee]	1D]
4ccc	.	4a	.
4bb	.	4dd	.
4aa	.	4cc	.
=221	=221	=221	=221
1gg	4gg	4b-	4EE-
.	8b-	8g	8E-
.	8b-	8g	8E-
.	4b-	4g	4E-
.	4b-	4g	4E-
=222	=222	=222	=222
1bb-	4gg	4b-	4EE-
.	8b-	8g	8E-
.	8b-	8g	8E-
.	4b-	4g	4E-
.	4b-	4g	4E-
=223	=223	=223	=223
1eee-	4gg	4b-	4EE-
.	8b-	8g	8E-
.	8b-	8g	8E-
.	4b-	4g	4E-
.	4b-	4g	4E-
=224	=224	=224	=224
1ccc#	4gg	4b-	4EE
.	8b-	8g	8E
.	8b-	8g	8E
.	4b-	4g	4E
.	4b-	4g	4E
=225	=225	=225	=225
4ddd	4a	4d	4F
8dd	2.r	2.r	2.r
8dd	.	.	.
4dd	.	.	.
4dd	.	.	.
=226	=226	=226	=226
4ccc	4dd	4a	4F#
8dd	2.r	2.r	2.r
8dd	.	.	.
4dd	.	.	.
4dd	.	.	.
=227	=227	=227	=227
4bb	4dd	4g	4G
8dd	2.r	2.r	2.r
8dd	.	.	.
4dd	.	.	.
4dd	.	.	.
=228	=228	=228	=228
4ff#	4cc	4a	4D#
8cc	2.r	2.r	2.r
8cc	.	.	.
4cc	.	.	.
4cc	.	.	.
=229	=229	=229	=229
4b	4g	4r	4E
8gg	8b	8e	2.r
8gg	8b	8e	.
4gg	4b	4e	.
4gg	4b	4e	.
=230	=230	=230	=230
4r	4r	4r	4C#
8ee	8b- 8g	8c#	2.r
8ee	8b- 8g	8c#	.
4ee	4b- 4g	4c#	.
4ee	4b- 4g	4c#	.
=231	=231	=231	=231
4r	4r	4r	4D
8dd	8b 8g	8d	2.r
8dd	8b 8g	8d	.
4dd	4b 4g	4d	.
4dd	4b 4g	4d	.
=232	=232	=232	=232
4r	4r	4r	4D
8f#	8d 8c	8A	2.r
8f#	8d 8c	8A	.
4f#	4d 4c	4A	.
4f#	4d 4c	4A	.
=233	=233	=233	=233
4g	4d 4B	4G	4GG
8r	2.r	2.r	2.r
8d	.	.	.
8f#	.	.	.
8e	.	.	.
8g	.	.	.
8f#	.	.	.
=234	=234	=234	=234
8a	1r	1r	1r
8g	.	.	.
8b	.	.	.
8a	.	.	.
8cc	.	.	.
8b	.	.	.
8dd	.	.	.
8cc	.	.	.
=235	=235	=235	=235
2dd	4B	4G	4GG
.	4B	4G	2.r
4.b	4B	4G	.
.	4B	4G	.
8gg	.	.	.
=236	=236	=236	=236
2gg	4B	4G	4GG
.	4B	4G	2.r
[2dd	4B	4G	.
.	4B	4G	.
=237	=237	=237	=237
2dd]	4A	4F#	4D
.	4A	4F#	2.r
4cc	4A	4F#	.
4a	4c	4F#	.
=238	=238	=238	=238
4.a	4c	4F#	4GG
.	4B	4G	2.r
8b	.	.	.
2g	4d	4B	.
.	4d	4B	.
=239	=239	=239	=239
2dd	4B	4G	4GG
.	4B	4G	2.r
4.b	4B	4G	.
.	4B	4G	.
8gg	.	.	.
=240	=240	=240	=240
2gg	4B	4G	4GG
.	4B	4G	2.r
[2dd	4B	4G	.
.	4B	4G	.
=241	=241	=241	=241
2dd]	4A	4F#	4D
.	4A	4F#	2.r
4cc	4A	4F#	.
4a	4c	4F#	.
=242	=242	=242	=242
8g	4B	4G	4GG
8dd	.	.	.
8ee	2.r	2.r	2.r
8ff#	.	.	.
8gg	.	.	.
8aa	.	.	.
8bb	.	.	.
8ccc	.	.	.
=243	=243	=243	=243
4ddd	8b	4G	[1GG
.	8dd	.	.
4ddd	8g	4B	.
.	8dd	.	.
4bb	8b	4d	.
.	8dd	.	.
4ggg	8g	4B	.
.	8dd	.	.
=244	=244	=244	=244
4ggg	8b	4G	1GG]
.	8dd	.	.
4ggg	8g	4B	.
.	8dd	.	.
[2ddd	8b	4d	.
.	8dd	.	.
.	8g	4B	.
.	8dd	.	.
=245	=245	=245	=245
4ddd]	8cc	4F#	1DD
.	8dd	.	.
4ddd	8a	4A	.
.	8dd	.	.
4ccc	8cc	4d	.
.	8dd	.	.
4aa	8a	4F#	.
.	8dd	.	.
=246	=246	=246	=246
4aa	8b	4G	[1GG
.	8dd	.	.
4bb	8g	4B	.
.	8dd	.	.
2gg	8b	4d	.
.	8dd	.	.
.	8g	4B	.
.	8dd	.	.
=247	=247	=247	=247
8ccc#	8b	4G	1GG_
8ddd	8dd	.	.
8ccc#	8g	4B	.
8ddd	8dd	.	.
4bb	8b	4d	.
.	8dd	.	.
4ggg	8g	4B	.
.	8dd	.	.
=248	=248	=248	=248
8fff#	8b	4G	1GG]
8ggg	8dd	.	.
8fff#	8g	4B	.
8ggg	8dd	.	.
4ddd	8b	4d	.
.	8dd	.	.
4r	8g	4B	.
.	8dd	.	.
=249	=249	=249	=249
8ccc#	8a	4F#	1DD
8ddd	8dd	.	.
8ccc#	8f#	4A	.
8ddd	8dd	.	.
4ccc	8a	4d	.
.	8dd	.	.
4aa	8f#	4c	.
.	8dd	.	.
=250	=250	=250	=250
4gg	8g	8B	4GG
.	8B	8G	.
2.r	8c	8A	8AA
.	8d	8B	8BB
.	8e	8c	8C
.	8f#	8d	8D
.	8g	8e	8E
.	8a	8f#	8F#
=251	=251	=251	=251
4b	4b	4g	4G
4b	4b	4g	4G
4dd	4a	4d	4F#
4dd	4a	4d	4F#
=252	=252	=252	=252
2.gg	2.g	2.B	2.E
4g	4g	4d	4BB
=253	=253	=253	=253
4a	4g	4d	4D
4a	4g	4d	4D
4dd	4f#	4d	4D
4dd	4f#	4d	4D
=254	=254	=254	=254
2b	8g	8d	4GG
.	8B	8G	.
.	8c	8A	8AA
.	8d	8B	8BB
2r	8e	8c	8C
.	8f#	8d	8D
.	8g	8e	8E
.	8a	8f#	8F#
=255	=255	=255	=255
4b	4b	4g	4G
4b	4b	4g	4G
4dd	4a	4d	4F#
4dd	4a	4d	4F#
=256	=256	=256	=256
2.gg	2g	2.B	2E
.	2r	.	2r
8e	.	8G	.
8f#	.	8A	.
=257	=257	=257	=257
4g	4g	4B	4E
4g	4g	4B	4E
4b	4f#	4B	4D
4b	4f#	4B	4D
=258	=258	=258	=258
2.ee	2e	2.G	2C
.	2r	.	2r
8c	.	8E	.
8d	.	8F#	.
=259	=259	=259	=259
4e	4e	4G	4C
4e	4e	4G	4C
4g	4d	4G	4BB
4g	4d	4G	4BB
=260	=260	=260	=260
4cc	4c	4E	4AA
4r	4r	4r	4r
4cc	4e	4G	4GG
4r	4r	4r	4r
=261	=261	=261	=261
4cc	4a	4A	4FF#
4r	4r	4r	4r
4cc	4g	4A	4EE
4r	4r	4r	4r
=262	=262	=262	=262
2.cc	2f#	2A	2DD
.	2r	2r	2r
4d	.	.	.
=263	=263	=263	=263
4f#	1r	1r	1r
4f#	.	.	.
4a	.	.	.
4a	.	.	.
=264	=264	=264	=264
4cc	[1cc	[1a 1f#	[1d
2r	.	.	.
4dd	.	.	.
=265	=265	=265	=265
4ff#	1cc_	1a 1f#_	1d_
4ff#	.	.	.
4aa	.	.	.
4aa	.	.	.
=266	=266	=266	=266
4ccc	4cc]	4a 4f#]	4d]
2.r	2r	2.r	2.r
.	4d	.	.
=267	=267	=267	=267
1r	4e-	1r	1r
.	4e	.	.
.	4f	.	.
.	4f#	.	.
=268	=268	=268	=268
1r	[1g	2.r	1r
.	.	4b	.
=269	=269	=269	=269
1r	1g_	4cc	1r
.	.	4cc#	.
.	.	4dd	.
.	.	4dd#	.
=270	=270	=270	=270
1r	1g_	[1ee	2.r
.	.	.	4A
=271	=271	=271	=271
1r	1g]	1ee_	4B-
.	.	.	4B
.	.	.	4c
.	.	.	4c#
=272	=272	=272	=272
2.r	[1f#	1ee]	[1d
4aa	.	.	.
=273	=273	=273	=273
4bb-	1f#]	[1dd	2d]
4bb	.	.	.
4ccc	.	.	2c
4ccc#	.	.	.
=274	=274	=274	=274
[1ddd	[1ff 1g	2.dd]	2.B
.	.	4B	4G
=275	=275	=275	=275
1ddd_	1ff 1g]	4c	4A-
.	.	4c#	4A
.	.	4d	4B-
.	.	4d#	4B
=276	=276	=276	=276
2ddd]	2.ee 2.g	[1e	2.c
[2ccc	.	.	.
.	4g	.	4E
=277	=277	=277	=277
2ccc]	4g#	1e_	4F
.	4a	.	4F#
[2bb	4a#	.	4G
.	4b	.	4G#
=278	=278	=278	=278
2bb]	2.cc	2.e]	2.A
4aa	.	.	.
4ff#	[4cc	4a	4D
=279	=279	=279	=279
4gg	4cc]	4g	4E-
4gg#	2cc	4b-	4E
4aa	.	[2a	4F
4ee-	[4cc	.	4F#
=280	=280	=280	=280
2dd	2cc]	2a]	2G
[2gg	2b	2g	2E
=281	=281	=281	=281
2gg]	1a	2e	2C
2ff#	.	4d	2D
.	.	4c	.
=282	=282	=282	=282
1gg	4g	4B	4G
.	4r	2.r	2.r
.	[2g	.	.
=283	=283	=283	=283
1bb	2g]	1d	1r
.	[2b	.	.
=284	=284	=284	=284
1eee	2b]	1e	1G
.	[2ee	.	.
=285	=285	=285	=285
1ccc#	4ee]	1a	1A
.	4cc#	.	.
.	4g	.	.
.	4e	.	.
=286	=286	=286	=286
2.ddd	4d	1f#	1d
.	4f#	.	.
.	4a	.	.
8dd	[4dd	.	.
8ee	.	.	.
=287	=287	=287	=287
8ff	8dd]	[1g	1B
8ee	8cc	.	.
8dd	8b	.	.
8cc	8a	.	.
8b	8g	.	.
8a	8f	.	.
8g	8e	.	.
8f	8d	.	.
=288	=288	=288	=288
4e	4c	4g]	4c
4r	4r	4r	4r
4ee	4cc	4a	4A
4r	4r	4r	4r
=289	=289	=289	=289
4dd	4cc	4a	4F#
4r	4r	4r	4r
4gg	4b	4g	4G
4r	4r	4r	4r
=290	=290	=290	=290
4a	4g	4e	4C
4r	4r	4r	4r
4ff# 4a 4d	4cc 4d	4d	4D
4r	4r	4r	4r
=291	=291	=291	=291
4gg 4b 4d	4b 4d 4G	4d	4GG
2.r	2.r	2.r	2.r
=292	=292	=292	=292
1g	1r	1r	1r
=293	=293	=293	=293
1b	1r	1r	1r
=294	=294	=294	=294
1ee	[1B-	[1G	1C#
=295	=295	=295	=295
1cc#	1B-]	1G_	1E
=296	=296	=296	=296
1dd	1B	1G]	1D
=297	=297	=297	=297
1f#	1c	1A	1DD
=298	=298	=298	=298
4g	4B	4G	4GG
2.r	2.r	2.r	2.r
==	==	==	==
*-	*-	*-	*-
!!!RWG1: This file contains only pitch and duration data.
!!!RWG2: Transposing instruments are not transposed.
!!!RWG3: Spines may have incompatible meters.
!!!RWG4: Durations of rests and tied notes may be interpreted.
!!!RWG: Key is interpreted using the Humdrum key tool.
!!!AFT: stage1
!!!END: 1997/04/15
!!format changes:
!!content changes:
!!public access: complete
!!!KEY: 653740536
!!!EMD: Converted from MuseData to Humdrum Dec 16, 2000, by Andreas Kornstaedt using muse2kern.
